X: 18850
T: In And Out The Windows
R: polka
M: 2/4
K: Gmajor
|:G|D>G B>c|BA z A|D>F A>B|AG z B|
D>G B>c|BA z A|dd cA|G2 z:|

